X:23
T:RVW2/2/23 Sweet Primeroses
C:Mrs. Charles White, 14 April 1904, Willingale Doe, Essex
L:1/8
Q:1/4=80
M:3/4
I:linebreak $
K:G
"^(Editorial suggestion)  " D | BB B2 AG | BG AD z G | Bd e3 d | Bd B3 d |$ ed B2 GF/E/ | 
AB c B2"^(a)" D |"^(b)" GB d3 A | cB G3 ||$ D | BB B2 AG | BG AD z G | Bd e3 d | Bd B3 d |$ 
ed B2 GF/E/ | AB c B2"^(a) var." G |"^(b) var." Bd e3 d | cB G3 |] 



